assets/img/icono.svg

<svg xmlns="http://www.w3.org/2000/svg" width="1200" height="1200" fill="none" xmlns:v="https://vecta.io/nano"><path fill="#000" d="M439 601h329v208H439z"/><path fill-rule="evenodd" d="M568.183 456.477c0-3.673-.18-7.32-.18-10.762 0-13.557 0-19.12-10.943-23.465-12.313-4.916-25.74-3.96-38.648-3.027-9.908.698-19.505 1.37-28.068-.62-8.045-9.625-6.415-19.352-4.734-29.364 1.57-6.65 1.773-13.552.595-20.284a39.55 39.55 0 0 0-16.712-6.463c-5.99-.848-12.098-.3-17.85 1.574-4.785 7.114-4.527 17.54-4.294 28.018.207 9.47.44 19.016-3.052 26.234a289.06 289.06 0 0 1-57.921 1.63c-3.285 0-6.804 0-10.348.26-16.22.57-34.07 1.216-40.174-9.34-8.977-15.807-4.14-45.042.776-75.027 8.356-51.38 17.306-105.012-43.382-95.362a94.42 94.42 0 0 0-41.391 17.359c-22.816 18.73-9.08 134.713-5.33 161.438l.44 3.208c4.657 34.02 6.002 43.594 72.15 43.594 31.042 0 62.085-3.027 92.87-6.028l16.427-1.578c29.88-2.976 77.452-6.65 87.075-6.65 1.656 0 3.596-.156 5.743-.31 10.347-.802 24.756-1.94 24.756 12.936v12.21c.365 5.13-.001 10.288-1.086 15.316l-5.562.285c-38.984 1.914-104.02 5.174-128.8 22.792a74.66 74.66 0 0 0-20.126 22.172c-5.17 8.73-8.54 18.406-9.908 28.46-7.14 45.844-9.442 90.912-9.856 99.346v.207c-2.924 56.918-3.053 211.215 20.954 251.367 21.316 35.65 73.467 38.808 121.403 41.395l17.927 1.112a1022.84 1022.84 0 0 0 226.871-9.365c15.135-1.607 29.35-8.048 40.536-18.37 11.238-10.35 18.94-23.97 22.015-38.936 6.47-37.784 9.93-76.02 10.347-114.352 4.683-49.674 0-172.977-10.528-219.364-12.52-53.14-56.653-57.435-101.226-61.782l-9.002-.905c-4.5-.44-10.968-.828-17.953-1.268-13.814-.828-29.646-1.81-36.217-3.596v-28.458c0-14.023 5.38-13.66 40.77-11.28l6.467.413c13.762 1.035 31.276 2.82 50.548 4.813 60.068 6.157 137.26 14.074 172.624 5.898 21.6-5.02 23.877-11.124 27.343-33.788 4-26.31 17.358-144.88 0-166.586a77.38 77.38 0 0 0-40.019-21.034c-66.975-13.84-58.05 41.68-49.565 94.535 4.89 30.45 9.65 60.02-.362 75.027-6.778 9.986-24.912 9.236-40.77 8.59l-10.735-.3H792.75c-26.257.155-35.776.207-38.803-4.217-1.76-2.587-1.45-6.468-.983-12.65a142.05 142.05 0 0 0 0-27.968c-2.587-24.552-37.5-8.408-38.803-6.105-.862 6.735-.644 13.565.646 20.23 1.45 10.633 2.872 21.06-3.828 28.46-6.312 3.286-17.695 2.587-29.982 2.07-13.71-.7-28.456-1.475-38.804 2.95s-9.985 10.84-9.882 23.465v40.1c0 7.037-4.216 6.78-15.52 6.132-4-.233-8.9-.518-14.823-.57H567.07l.93-12.47c.427-7.305.487-14.627.18-21.94zM532.82 764.555c11.297.2 22.398-2.967 31.89-9.098a56.92 56.92 0 0 0 21.405-25.33c4.462-10.38 5.734-21.855 3.653-32.962a56.91 56.91 0 0 0-15.337-29.403c-7.918-8.062-18.055-13.584-29.122-15.863s-22.56-1.212-33.02 3.064a56.92 56.92 0 0 0-25.706 20.951c-6.3 9.38-9.664 20.424-9.666 31.724a56.41 56.41 0 0 0 4.097 21.629 56.42 56.42 0 0 0 30.256 30.805c6.82 2.895 14.142 4.42 21.55 4.483zm221.257-57.383c-.224 13.412-4.405 26.458-12.02 37.5s-18.32 19.6-30.775 24.568a68.06 68.06 0 0 1-73.781-15.477c-9.405-9.563-15.775-21.692-18.31-34.864a68.08 68.08 0 0 1 4.061-39.171c5.183-12.372 13.906-22.936 25.072-30.366a68.06 68.06 0 0 1 37.692-11.397c9.013.074 17.923 1.923 26.22 5.442s15.822 8.636 22.142 15.063a68.64 68.64 0 0 1 14.693 22.391c3.38 8.356 5.08 17.296 5.005 26.3z" fill="#fff"/></svg>

<svg width="1200" height="1200" viewBox="0 0 1200 1200" fill="none" xmlns="http://www.w3.org/2000/svg">
<rect x="439" y="601" width="329" height="208" fill="black"/>
<path fill-rule="evenodd" clip-rule="evenodd" d="M568.183 456.477C568.183 452.804 568.002 449.156 568.002 445.715C568.002 432.158 568.002 426.596 557.059 422.25C544.746 417.334 531.32 418.291 518.411 419.223C508.503 419.921 498.906 420.594 490.343 418.602C482.298 408.977 483.928 399.25 485.609 389.238C487.18 382.587 487.382 375.686 486.204 368.954C481.201 365.55 475.484 363.338 469.492 362.491C463.501 361.643 457.394 362.181 451.643 364.065C446.858 371.179 447.116 381.605 447.349 392.083C447.556 401.552 447.789 411.099 444.297 418.317C425.093 420.799 405.689 421.345 386.376 419.947C383.091 419.947 379.572 419.947 376.028 420.206C359.809 420.775 341.959 421.422 335.854 410.866C326.877 395.059 331.715 365.824 336.63 335.839C344.986 284.458 353.936 230.827 293.248 240.477C278.256 242.852 264.059 248.807 251.857 257.836C229.041 276.567 242.777 392.549 246.528 419.274C246.684 420.361 246.813 421.448 246.968 422.482C251.625 456.503 252.97 466.076 319.117 466.076C350.159 466.076 381.202 463.049 411.986 460.048L428.413 458.47C458.292 455.494 505.865 451.821 515.488 451.821C517.144 451.821 519.084 451.665 521.231 451.51C531.578 450.708 545.987 449.57 545.987 464.446C545.987 469.879 545.987 473.708 545.987 476.657C546.352 481.788 545.986 486.945 544.901 491.973L539.339 492.258C500.355 494.172 435.32 497.432 410.538 515.05C402.401 521.006 395.554 528.548 390.412 537.222C385.242 545.952 381.873 555.628 380.504 565.681C373.364 611.525 371.062 656.593 370.648 665.027V665.234C367.724 722.152 367.595 876.449 391.602 916.601C412.918 952.252 465.069 955.409 513.005 957.996C519.075 958.323 525.051 958.694 530.932 959.108C606.669 964.416 682.761 961.275 757.803 949.743C772.938 948.136 787.152 941.695 798.339 931.374C809.577 921.024 817.278 907.403 820.354 892.438C826.824 854.654 830.284 816.417 830.701 778.086C835.384 728.412 830.701 605.109 820.173 558.722C807.652 505.582 763.52 501.287 718.947 496.94L709.945 496.035C705.444 495.595 698.977 495.207 691.992 494.767C678.178 493.939 662.346 492.956 655.775 491.171V462.713C655.775 448.69 661.156 449.052 696.545 451.433L703.012 451.846C716.774 452.881 734.288 454.666 753.56 456.659C813.628 462.816 890.821 470.733 926.184 462.557C947.784 457.538 950.061 451.433 953.527 428.769C957.537 402.458 970.885 283.889 953.527 262.183C942.578 251.344 928.644 244.02 913.508 241.149C846.533 227.308 855.458 282.828 863.943 335.684C868.832 366.134 873.592 395.705 863.581 410.711C856.803 420.697 838.669 419.947 822.811 419.3C819.034 419.145 815.413 418.99 812.076 418.99C804.806 418.99 798.391 418.99 792.751 418.99C766.494 419.145 756.975 419.197 753.948 414.773C752.189 412.186 752.499 408.305 752.965 402.122C753.885 392.822 753.885 383.454 752.965 374.154C750.378 349.602 715.455 365.746 714.162 368.049C713.3 374.784 713.518 381.614 714.808 388.28C716.257 398.913 717.68 409.34 710.98 416.739C704.668 420.025 693.285 419.326 680.998 418.809C667.287 418.11 652.542 417.334 642.194 421.758C631.847 426.182 632.209 432.598 632.312 445.223V485.324C632.312 492.361 628.096 492.103 616.791 491.456C612.781 491.223 607.892 490.938 601.968 490.887H567.071L568.002 478.416C568.429 471.111 568.489 463.789 568.183 456.477ZM532.82 764.555C544.117 764.755 555.218 761.588 564.709 755.457C574.2 749.326 581.651 740.508 586.114 730.127C590.576 719.746 591.848 708.272 589.767 697.165C587.687 686.059 582.348 675.823 574.43 667.762C566.512 659.7 556.375 654.178 545.308 651.899C534.242 649.62 522.748 650.687 512.289 654.963C501.831 659.24 492.883 666.533 486.583 675.914C480.284 685.294 476.919 696.338 476.917 707.638C476.849 715.046 478.241 722.396 481.014 729.267C483.787 736.137 487.886 742.394 493.077 747.68C498.269 752.965 504.451 757.176 511.27 760.072C518.089 762.967 525.412 764.491 532.82 764.555ZM754.077 707.172C753.853 720.584 749.672 733.63 742.058 744.673C734.444 755.716 723.738 764.263 711.283 769.241C698.828 774.219 685.181 775.405 672.054 772.652C658.927 769.898 646.907 763.327 637.502 753.764C628.097 744.201 621.727 732.072 619.191 718.9C616.656 705.728 618.069 692.101 623.252 679.729C628.435 667.357 637.158 656.793 648.324 649.363C659.491 641.933 672.604 637.968 686.016 637.966C695.029 638.04 703.939 639.889 712.237 643.408C720.535 646.926 728.059 652.044 734.379 658.471C740.699 664.897 745.692 672.506 749.072 680.862C752.451 689.218 754.152 698.158 754.077 707.172Z" fill="white"/>
</svg>
